icon-themes/sifr_svg/cmd/sc_hangingindent.svg

<svg viewBox="0 0 16 16" xmlns="http://www.w3.org/2000/svg"><path d="m1 0v2h14v-2zm7 3v2h7v-2zm-7 1v1c0 .224022.12983.528449.3125.71875l.3710938.28125 1.3164062 1-1.3164062 1-.3710938.28125c-.18267.190288-.3242396.4621264-.3125.71875v1h.4121094.5878906c.30945 0 .55232-.0903.75-.28125l2.25-1.8828125v-1.6152344c-.725151-.618354-1.233922-1.1698591-2.25-1.9394531-.19768-.19095-.44055-.28125-.75-.28125h-.5878906zm7 2v2h7v-2zm0 3v2h7v-2zm-7 5v2h14v-2z" fill="#555753"/></svg>

<svg xmlns="http://www.w3.org/2000/svg" viewBox="0 0 16 16">
  <path
     style="fill:#555753"
     d="M 1,0 V 2 H 15 V 0 Z m 7,3 v 2 h 7 V 3 Z M 1,4 V 5 C 1,5.224022 1.12983,5.528449 1.3125,5.71875 L 1.6835938,6 3,7 1.6835938,8 1.3125,8.28125 C 1.12983,8.471538 0.9882604,8.7433764 1,9 v 1 H 1.4121094 2 C 2.30945,10 2.55232,9.9097 2.75,9.71875 L 5,7.8359375 V 6.2207031 C 4.274849,5.6023491 3.766078,5.050844 2.75,4.28125 2.55232,4.0903 2.30945,4 2,4 H 1.4121094 Z m 7,2 v 2 h 7 V 6 Z m 0,3 v 2 h 7 V 9 Z m -7,5 v 2 h 14 v -2 z"
     />
</svg>
